assets/images/home/radialStripes.svg

<svg enable-background="new 0 0 960 960" height="960" viewBox="0 0 960 960" width="960" xmlns="http://www.w3.org/2000/svg" xmlns:xlink="http://www.w3.org/1999/xlink"><radialGradient id="a" cx="480.0005" cy="480.0005" gradientUnits="userSpaceOnUse" r="478.6878"><stop offset="0" stop-color="#fff"/><stop offset="1" stop-color="#fdfdfd" stop-opacity="0"/></radialGradient><path d="m480 0v480l-99.797-469.511zm-282.137 91.672 282.137 388.328-195.233-438.502zm-133.555 148.328 415.692 240-356.71-321.183zm-61.679 189.827 477.371 50.173-456.508-148.328zm20.863 198.502 456.508-148.329-477.371 50.174zm99.798 172.855 356.71-321.184-415.692 240zm161.477 117.319 195.233-438.503-282.138 388.328zm195.234 41.498-.001-480.001-99.799 469.512zm195.233-41.498-195.234-438.503 99.796 469.513zm161.476-117.319-356.71-321.184 282.136 388.331zm99.798-172.855-456.508-148.329 415.692 240.004zm20.863-198.502-477.371 50.173 477.372 50.178zm-61.679-189.826-415.692 239.999 456.51-148.325zm-133.554-148.328-282.138 388.327 356.713-321.181zm-182.339-81.183-99.799 469.51 195.237-438.501z" fill="url(#a)"/></svg>

<?xml version="1.0" encoding="utf-8"?>
<!-- Generator: Adobe Illustrator 16.0.0, SVG Export Plug-In . SVG Version: 6.00 Build 0)  -->
<!DOCTYPE svg PUBLIC "-//W3C//DTD SVG 1.1//EN" "http://www.w3.org/Graphics/SVG/1.1/DTD/svg11.dtd">
<svg version="1.1" id="Layer_1" xmlns="http://www.w3.org/2000/svg" xmlns:xlink="http://www.w3.org/1999/xlink" x="0px" y="0px"
	 width="960px" height="960px" viewBox="0 0 960 960" enable-background="new 0 0 960 960" xml:space="preserve">
<radialGradient id="SVGID_1_" cx="480.0005" cy="480.0005" r="478.6878" gradientUnits="userSpaceOnUse">
	<stop  offset="0" style="stop-color:#FFFFFF"/>
	<stop  offset="1" style="stop-color:#FDFDFD;stop-opacity:0"/>
</radialGradient>
<path fill="url(#SVGID_1_)" d="M480,0v480L380.203,10.489L480,0z M197.863,91.672L480,480L284.767,41.498L197.863,91.672z
	 M64.308,240L480,480L123.29,158.817L64.308,240z M2.629,429.827L480,480L23.492,331.672L2.629,429.827z M23.492,628.329L480,480
	L2.629,530.174L23.492,628.329z M123.29,801.184L480,480L64.308,720L123.29,801.184z M284.767,918.503L480,480L197.862,868.328
	L284.767,918.503z M480.001,960.001L480,480l-99.799,469.512L480.001,960.001z M675.234,918.503L480,480l99.796,469.513
	L675.234,918.503z M836.71,801.184L480,480l282.136,388.331L836.71,801.184z M936.508,628.329L480,480l415.692,240.004
	L936.508,628.329z M957.371,429.827L480,480l477.372,50.178L957.371,429.827z M895.692,240.001L480,480l456.51-148.325
	L895.692,240.001z M762.138,91.673L480,480l356.713-321.181L762.138,91.673z M579.799,10.49L480,480L675.237,41.499L579.799,10.49z"
	/>
</svg>
